Hatter-kde-dark/actions/16/align-horizontal-right-to-anchor.svg

<?xml version="1.0" encoding="UTF-8"?>
<svg viewBox="0 0 16 16" xmlns="http://www.w3.org/2000/svg">
 <defs id="defs3051">
  <style id="current-color-scheme" type="text/css">.ColorScheme-Text {
        color:#dedede;
      }</style>
 </defs>
 <path class="ColorScheme-Text" d="m2 2v5h6v-5h-6zm8 0v12h1v-12h-1zm2 0v5h2v-5h-2zm-9 1h4v3h-4v-3zm-1 6v5h7v-5h-7zm1 1h5v3h-5v-3z" fill="currentColor"/>
</svg>

<svg xmlns="http://www.w3.org/2000/svg" viewBox="0 0 16 16">
  <defs id="defs3051">
    <style type="text/css" id="current-color-scheme">
      .ColorScheme-Text {
        color:#dedede;
      }
      </style>
  </defs>
 <path style="fill:currentColor;fill-opacity:1;stroke:none" 
       d="M 2 2 L 2 7 L 8 7 L 8 2 L 2 2 z M 10 2 L 10 14 L 11 14 L 11 2 L 10 2 z M 12 2 L 12 7 L 14 7 L 14 2 L 12 2 z M 3 3 L 7 3 L 7 6 L 3 6 L 3 3 z M 2 9 L 2 14 L 9 14 L 9 9 L 2 9 z M 3 10 L 8 10 L 8 13 L 3 13 L 3 10 z "
     class="ColorScheme-Text"
     />
</svg>
